packages/core/src/svgs/gpcx.svg

<svg width="24" height="24" viewBox="0 0 24 24" fill="none" xmlns="http://www.w3.org/2000/svg">
<g clip-path="url(#clip0_31_11024)">
<path d="M0 0H24V24H0V0Z" fill="#F7D713"/>
<path d="M10.0201 5.14289C10.8515 5.14289 11.533 5.35717 12.0344 5.70003V5.70432C12.7088 5.30906 13.4818 5.1143 14.263 5.14289C16.1058 5.14289 18.0001 6.27432 18.0001 8.2886C17.984 8.81411 17.8392 9.32765 17.5784 9.78418C17.3176 10.2407 16.9489 10.6263 16.5044 10.9072C17.2715 11.2715 18.0173 12.0429 18.0001 12.9386C17.983 13.71 17.3573 14.2843 16.8858 14.8372L16.8901 14.8415C17.2544 15.3343 17.6015 15.8057 18.0001 16.2472L17.9615 16.7872C17.9076 17.3348 17.6559 17.8441 17.2536 18.2196C16.8513 18.595 16.3259 18.8111 15.7758 18.8272C15.0558 18.8272 14.5287 18.3815 14.1987 18.0472C14.0187 18.2657 13.8644 18.4886 13.7015 18.7286L13.1615 18.8272C12.882 18.8745 12.5957 18.8635 12.3206 18.7949C12.0455 18.7263 11.7876 18.6016 11.563 18.4286C11.113 18.6215 10.4487 18.8572 9.85725 18.8572C7.58583 18.8572 6.00011 16.86 6.00011 14.67C6.00011 13.3629 6.5144 12.3729 7.28154 11.7215C6.87537 11.3667 6.5506 10.9283 6.32944 10.4365C6.10828 9.94459 5.99594 9.41075 6.00011 8.87146C6.00011 6.76289 7.99297 5.14289 10.0201 5.14289Z" fill="url(#paint0_linear_31_11024)"/>
<path d="M13.4357 14.7643L12.3643 16.1143C12.2709 16.2195 12.2049 16.3461 12.172 16.4829C12.1391 16.6196 12.1404 16.7624 12.1757 16.8986C12.2957 17.37 12.7457 17.6271 13.0757 17.5629C13.1314 17.4771 13.6843 16.7957 14.3529 15.9857L15.15 17.1943C15.2229 17.3229 15.4671 17.5714 15.8571 17.5714C16.3414 17.5714 16.6929 17.1943 16.7143 16.86C16.6371 16.7743 16.02 15.7757 15.3214 14.8071L16.3543 13.5557C16.4614 13.4271 16.6457 13.0843 16.5471 12.6986C16.4314 12.2271 15.8743 12.0043 15.6214 12L14.4043 13.5386C14.1343 13.1571 13.8814 12.69 13.6757 12.3986C13.5771 12.27 13.29 12 12.9043 12C12.42 12 12.0643 12.4886 12 12.7329L13.4357 14.7643Z" fill="url(#paint1_linear_31_11024)"/>
<path d="M13.7143 10.2859V11.9316C13.5772 11.953 13.4657 12.0001 13.1786 12.0001C12.5614 12.0001 12.42 11.5716 12.4286 11.3573V7.07157H12.4372C12.5014 6.82728 12.9257 6.42871 14.2672 6.42871C16.0586 6.42871 16.7143 7.41442 16.7143 8.37871C16.7205 8.6345 16.6739 8.88881 16.5775 9.12583C16.4811 9.36284 16.337 9.57748 16.1541 9.75638C15.9712 9.93528 15.7534 10.0746 15.5143 10.1657C15.2752 10.2568 15.0199 10.2977 14.7643 10.2859H13.7143ZM13.7143 9.00014H14.7514C15.1157 9.00014 15.4286 8.72585 15.4286 8.35728C15.4286 7.98871 15.1157 7.71443 14.7514 7.71443H13.7143V9.00014Z" fill="url(#paint2_linear_31_11024)"/>
<path d="M11.8157 7.02857C11.8157 7.31571 11.5243 7.58143 11.3786 7.68C10.9855 7.43511 10.5344 7.29904 10.0715 7.28571C9.36003 7.28571 8.35718 7.83429 8.35718 8.75143C8.35718 10.05 9.42861 10.2857 9.91289 10.2857C10.1486 10.2857 10.6157 10.2 10.7143 10.1529V8.14286H11.5415C11.7943 8.14286 12 8.34429 12 8.58857V10.6071C12 10.9929 11.6786 11.5714 9.90861 11.5714C8.14289 11.5714 6.85718 10.4743 6.85718 8.75143C6.85718 7.02857 8.55432 6 9.91289 6C11.2672 6 11.8157 6.67286 11.8157 7.02857Z" fill="url(#paint3_linear_31_11024)"/>
<path d="M11.5715 12.9214C11.5715 13.2643 11.2972 13.5429 11.1643 13.6414C10.801 13.3985 10.3712 13.2742 9.93432 13.2857C9.18861 13.2857 8.35718 13.9286 8.35718 14.7171C8.35718 15.9771 9.50146 16.2857 10.0286 16.2857C10.4572 16.2857 11.0143 16.1143 11.2329 15.9986C11.3486 16.11 11.5715 16.4014 11.5715 16.6714C11.5715 17.01 11.2329 17.5714 9.81432 17.5714C8.40003 17.5714 6.85718 16.7871 6.85718 14.7171C6.85718 12.6514 8.61432 12 9.74146 12C10.8729 12 11.5715 12.4929 11.5715 12.9214Z" fill="url(#paint4_linear_31_11024)"/>
<path d="M10.0714 9.85721C10.6632 9.85721 11.1429 9.37752 11.1429 8.78578C11.1429 8.19405 10.6632 7.71436 10.0714 7.71436C9.47969 7.71436 9 8.19405 9 8.78578C9 9.37752 9.47969 9.85721 10.0714 9.85721Z" fill="url(#paint5_linear_31_11024)"/>
<path d="M10.0713 9.66855C10.5589 9.66855 10.9542 9.27328 10.9542 8.78569C10.9542 8.2981 10.5589 7.90283 10.0713 7.90283C9.58374 7.90283 9.18848 8.2981 9.18848 8.78569C9.18848 9.27328 9.58374 9.66855 10.0713 9.66855Z" fill="#010002"/>
<path d="M9.65133 8.70835C9.56133 8.80263 9.61276 8.99977 9.65133 9.08549H9.8399C9.91276 9.08549 10.0113 9.25692 10.217 9.25692C10.4228 9.25692 10.5899 8.89692 10.5899 8.76835C10.5899 8.6612 10.3928 8.62263 10.2899 8.61835C10.3328 8.53263 10.4185 8.3612 10.4185 8.31835C10.4185 8.25835 10.3456 8.12549 10.2513 8.12549C10.157 8.12549 10.1785 8.21977 10.1785 8.31406C10.1785 8.3912 9.97704 8.61406 9.87847 8.70835H9.65133Z" fill="#92C30F"/>
<path d="M10.0714 15.8572C10.6632 15.8572 11.1429 15.3775 11.1429 14.7858C11.1429 14.1941 10.6632 13.7144 10.0714 13.7144C9.47969 13.7144 9 14.1941 9 14.7858C9 15.3775 9.47969 15.8572 10.0714 15.8572Z" fill="url(#paint6_linear_31_11024)"/>
<path d="M10.0713 15.6685C10.5589 15.6685 10.9542 15.2733 10.9542 14.7857C10.9542 14.2981 10.5589 13.9028 10.0713 13.9028C9.58374 13.9028 9.18848 14.2981 9.18848 14.7857C9.18848 15.2733 9.58374 15.6685 10.0713 15.6685Z" fill="#010002"/>
<path d="M9.65133 14.863C9.56133 14.7687 9.61276 14.5716 9.65133 14.4859H9.8399C9.91276 14.4859 10.0113 14.3145 10.217 14.3145C10.4228 14.3145 10.5899 14.6745 10.5899 14.803C10.5899 14.9102 10.3928 14.9487 10.2899 14.953C10.3328 15.0387 10.4185 15.2102 10.4185 15.253C10.4185 15.313 10.3456 15.4459 10.2513 15.4459C10.157 15.4459 10.1785 15.3516 10.1785 15.2573C10.1785 15.1802 9.97704 14.9573 9.87847 14.863H9.65133Z" fill="#E2070F"/>
</g>
<defs>
<linearGradient id="paint0_linear_31_11024" x1="6.85725" y1="11.9957" x2="17.9873" y2="11.9957" gradientUnits="userSpaceOnUse">
<stop stop-color="#D40E4C"/>
<stop offset="1" stop-color="#652584"/>
</linearGradient>
<linearGradient id="paint1_linear_31_11024" x1="12" y1="14.7986" x2="16.7143" y2="14.7986" gradientUnits="userSpaceOnUse">
<stop stop-color="#F6E526"/>
<stop offset="1" stop-color="#F39803"/>
</linearGradient>
<linearGradient id="paint2_linear_31_11024" x1="12.4286" y1="9.22728" x2="16.7143" y2="9.22728" gradientUnits="userSpaceOnUse">
<stop stop-color="#F6E526"/>
<stop offset="1" stop-color="#F39803"/>
</linearGradient>
<linearGradient id="paint3_linear_31_11024" x1="6.85718" y1="8.79857" x2="12" y2="8.79857" gradientUnits="userSpaceOnUse">
<stop stop-color="#F6E526"/>
<stop offset="1" stop-color="#F39803"/>
</linearGradient>
<linearGradient id="paint4_linear_31_11024" x1="6.85718" y1="14.7986" x2="11.5715" y2="14.7986" gradientUnits="userSpaceOnUse">
<stop stop-color="#F6E526"/>
<stop offset="1" stop-color="#F39803"/>
</linearGradient>
<linearGradient id="paint5_linear_31_11024" x1="9" y1="8.79007" x2="11.1429" y2="8.79007" gradientUnits="userSpaceOnUse">
<stop stop-color="#F6E526"/>
<stop offset="1" stop-color="#F39803"/>
</linearGradient>
<linearGradient id="paint6_linear_31_11024" x1="9" y1="14.7901" x2="11.1429" y2="14.7901" gradientUnits="userSpaceOnUse">
<stop stop-color="#F6E526"/>
<stop offset="1" stop-color="#F39803"/>
</linearGradient>
<clipPath id="clip0_31_11024">
<rect width="24" height="24" fill="white"/>
</clipPath>
</defs>
</svg>

<svg xmlns="http://www.w3.org/2000/svg" width="24" height="24" fill="none" viewBox="0 0 24 24"><g clip-path="url(#a)"><path fill="#F7D713" d="M0 0h24v24H0z"/><path fill="url(#b)" d="M10.02 5.143c.832 0 1.513.214 2.014.557v.004a4.1 4.1 0 0 1 2.229-.561C16.106 5.143 18 6.274 18 8.289a3.21 3.21 0 0 1-1.496 2.618c.767.364 1.513 1.136 1.496 2.032-.017.771-.643 1.345-1.114 1.898l.004.005c.364.492.712.964 1.11 1.405l-.038.54a2.26 2.26 0 0 1-2.186 2.04c-.72 0-1.247-.446-1.577-.78-.18.219-.335.442-.498.682l-.54.098a2.06 2.06 0 0 1-1.598-.398c-.45.193-1.114.428-1.706.428C7.586 18.857 6 16.86 6 14.67c0-1.307.514-2.297 1.282-2.948A3.75 3.75 0 0 1 6 8.872c0-2.11 1.993-3.73 4.02-3.73"/><path fill="url(#c)" d="m13.436 14.764-1.072 1.35a.86.86 0 0 0-.188.785c.12.471.57.728.9.664.055-.086.608-.767 1.277-1.577l.797 1.208a.83.83 0 0 0 .707.377c.484 0 .836-.377.857-.711-.077-.086-.694-1.084-1.393-2.053l1.033-1.251a1.02 1.02 0 0 0 .193-.857c-.116-.472-.673-.695-.926-.699l-1.217 1.539c-.27-.382-.523-.849-.728-1.14-.099-.129-.386-.399-.772-.399-.484 0-.84.489-.904.733z"/><path fill="url(#d)" d="M13.714 10.286v1.646c-.137.021-.248.068-.535.068-.618 0-.759-.428-.75-.643V7.072h.008c.064-.245.489-.643 1.83-.643 1.792 0 2.447.985 2.447 1.95a1.863 1.863 0 0 1-1.95 1.907zm0-1.286h1.037c.365 0 .678-.274.678-.643 0-.368-.313-.643-.678-.643h-1.037z"/><path fill="url(#e)" d="M11.816 7.029c0 .287-.292.552-.437.651a2.6 2.6 0 0 0-1.307-.394c-.712 0-1.715.548-1.715 1.465 0 1.299 1.072 1.535 1.556 1.535.236 0 .703-.086.801-.133v-2.01h.827c.253 0 .459.201.459.446v2.018c0 .386-.321.964-2.091.964-1.766 0-3.052-1.097-3.052-2.82S8.554 6 9.913 6c1.354 0 1.903.673 1.903 1.029"/><path fill="url(#f)" d="M11.572 12.921c0 .343-.275.622-.408.72a2.1 2.1 0 0 0-1.23-.355c-.745 0-1.577.643-1.577 1.431 0 1.26 1.144 1.569 1.672 1.569.428 0 .985-.172 1.204-.287.116.111.338.402.338.672 0 .339-.338.9-1.757.9-1.414 0-2.957-.784-2.957-2.854C6.857 12.651 8.614 12 9.741 12c1.132 0 1.83.493 1.83.921"/><path fill="url(#g)" d="M10.071 9.857a1.071 1.071 0 1 0 0-2.143 1.071 1.071 0 0 0 0 2.143"/><path fill="#010002" d="M10.071 9.669a.883.883 0 1 0 0-1.766.883.883 0 0 0 0 1.766"/><path fill="#92C30F" d="M9.651 8.708c-.09.095-.038.292 0 .377h.189c.073 0 .171.172.377.172s.373-.36.373-.489c0-.107-.197-.145-.3-.15.043-.085.129-.257.129-.3 0-.06-.073-.193-.168-.193-.094 0-.072.095-.072.19 0 .076-.202.3-.3.393z"/><path fill="url(#h)" d="M10.071 15.857a1.071 1.071 0 1 0 0-2.143 1.071 1.071 0 0 0 0 2.143"/><path fill="#010002" d="M10.071 15.669a.883.883 0 1 0 0-1.766.883.883 0 0 0 0 1.765"/><path fill="#E2070F" d="M9.651 14.863c-.09-.094-.038-.291 0-.377h.189c.073 0 .171-.171.377-.171s.373.36.373.488c0 .107-.197.146-.3.15.043.086.129.257.129.3 0 .06-.073.193-.168.193-.094 0-.072-.094-.072-.189 0-.077-.202-.3-.3-.394z"/></g><defs><linearGradient id="b" x1="6.857" x2="17.987" y1="11.996" y2="11.996" gradientUnits="userSpaceOnUse"><stop stop-color="#D40E4C"/><stop offset="1" stop-color="#652584"/></linearGradient><linearGradient id="c" x1="12" x2="16.714" y1="14.799" y2="14.799" gradientUnits="userSpaceOnUse"><stop stop-color="#F6E526"/><stop offset="1" stop-color="#F39803"/></linearGradient><linearGradient id="d" x1="12.429" x2="16.714" y1="9.227" y2="9.227" gradientUnits="userSpaceOnUse"><stop stop-color="#F6E526"/><stop offset="1" stop-color="#F39803"/></linearGradient><linearGradient id="e" x1="6.857" x2="12" y1="8.799" y2="8.799" gradientUnits="userSpaceOnUse"><stop stop-color="#F6E526"/><stop offset="1" stop-color="#F39803"/></linearGradient><linearGradient id="f" x1="6.857" x2="11.572" y1="14.799" y2="14.799" gradientUnits="userSpaceOnUse"><stop stop-color="#F6E526"/><stop offset="1" stop-color="#F39803"/></linearGradient><linearGradient id="g" x1="9" x2="11.143" y1="8.79" y2="8.79" gradientUnits="userSpaceOnUse"><stop stop-color="#F6E526"/><stop offset="1" stop-color="#F39803"/></linearGradient><linearGradient id="h" x1="9" x2="11.143" y1="14.79" y2="14.79" gradientUnits="userSpaceOnUse"><stop stop-color="#F6E526"/><stop offset="1" stop-color="#F39803"/></linearGradient><clipPath id="a"><path fill="#fff" d="M0 0h24v24H0z"/></clipPath></defs></svg>
